modules/hawcons-stroke/icons/icon-19-tennis-racket.svg

<?xml version="1.0" encoding="UTF-8" standalone="no"?>
<svg width="32px" height="32px" viewBox="0 0 32 32" version="1.1" xmlns="http://www.w3.org/2000/svg" xmlns:xlink="http://www.w3.org/1999/xlink" xmlns:sketch="http://www.bohemiancoding.com/sketch/ns">
    <!-- Generator: Sketch 3.0.3 (7891) - http://www.bohemiancoding.com/sketch -->
    <title>icon 19 tennis racket</title>
    <desc>Created with Sketch.</desc>
    <defs></defs>
    <g id="Page-1" stroke="none" stroke-width="1" fill="none" fill-rule="evenodd" sketch:type="MSPage">
        <g id="icon-19-tennis-racket" sketch:type="MSArtboardGroup" fill="#929292">
            <path d="M13,5 L14,5 L14,4 L13.1952663,4 C13.1290169,4.0888912 13.0639112,4.18025519 13,4.27399011 L13,5 L13,5 Z M13,7 L14,7 L14,6 L13,6 L13,7 L13,7 Z M12,7 L11.6974665,7 L11.6974665,7 C11.7902242,6.71489697 11.8912665,6.43769078 12,6.16956819 L12,7 L12,7 L12,7 Z M13,9 L14,9 L14,8 L13,8 L13,9 L13,9 Z M12,9 L11.2091148,9 L11.2091148,9 C11.26656,8.66000373 11.3352404,8.32616958 11.4144048,8 L12,8 L12,9 L12,9 L12,9 Z M13,14 L14,14 L14,15 L13,15 L13,14 L13,14 L13,14 Z M12,14 L11.4190167,14 C11.5745481,14.4001653 11.7700793,14.7554684 12,15.0687144 L12,15.0687144 L12,15.0343572 L12,14 L12,14 L12,14 Z M13,12 L14,12 L14,12 L14,13 L13,13 L13,12 L13,12 L13,12 Z M12,12 L11.0135854,12 L11.0135854,12 C11.0332784,12.354594 11.0741303,12.6876538 11.1345004,13 L11.1345004,13 L12,13 L12,12 L12,12 L12,12 Z M13,10 L14,10 L14,10 L14,11 L13,11 L13,10 L13,10 L13,10 Z M12,10 L11.0748887,10 L11.0748887,10 C11.041915,10.3295827 11.019517,10.6633325 11.0083195,11 L11.0083195,11 L12,11 L12,10 L12,10 L12,10 Z M15,5 L16,5 L16,4 L15,4 L15,5 L15,5 Z M15,2.38242167 C15.3228823,2.21492213 15.6572743,2.09926756 16,2.04181026 L16,2.04181026 L16,3 L15,3 L15,2.38242167 L15,2.38242167 L15,2.38242167 Z M15,7 L16,7 L16,6 L15,6 L15,7 L15,7 L15,7 Z M15,9 L16,9 L16,8 L15,8 L15,9 L15,9 Z M15,14 L16,14 L16,15 L15,15 L15,14 L15,14 L15,14 Z M14,16.5723073 C13.6191393,16.4236627 13.2632748,16.23404 12.9392847,16 L12.9392847,16 L14,16 L14,16.5723073 L14,16.5723073 Z M15,16.8604889 C15.3228823,16.9244498 15.6572743,16.965641 16,16.9856508 L16,16 L15,16 L15,16.8604889 L15,16.8604889 L15,16.8604889 Z M15,12 L16,12 L16,13 L15,13 L15,12 L15,12 L15,12 Z M15,10 L16,10 L16,11 L15,11 L15,10 L15,10 L15,10 Z M19,4 L19,5 L20,5 L20,4.27399026 C19.9360888,4.18025529 19.870983,4.08889125 19.8047337,4 L19,4 L19,4 Z M17,4 L17,5 L17,5 L18,5 L18,4 L17,4 L17,4 L17,4 Z M17,3 L17,2.04181026 C17.3427257,2.09926757 17.6771177,2.21492214 18,2.38242168 L18,3 L17,3 L17,3 Z M19,6 L19,7 L19,7 L20,7 L20,6 L19,6 L19,6 L19,6 Z M17,6 L17,7 L17,7 L18,7 L18,6 L17,6 L17,6 L17,6 Z M19,8 L19,9 L19,9 L20,9 L20,8 L19,8 L19,8 L19,8 Z M21.5855951,8 C21.6647594,8.32616958 21.7334399,8.66000373 21.7908851,9 L21.7908851,9 L21,9 L21,8 L21.5855951,8 L21.5855951,8 L21.5855951,8 Z M21.3025333,7 C21.2097757,6.71489709 21.1087335,6.43769102 21,6.16956854 L21,7 L21.3025333,7 L21.3025333,7 L21.3025333,7 Z M17,8 L17,9 L18,9 L18,8 L17,8 L17,8 Z M19,15 L19,14 L19,14 L20,14 L20,15 L19,15 L19,15 Z M19,16 L19,16.5723073 L19,16.5723073 C19.3808607,16.4236627 19.7367253,16.23404 20.0607154,16 L19,16 L19,16 Z M17,15 L17,14 L17,14 L18,14 L18,15 L17,15 L17,15 L17,15 Z M17,16 L17,16.9856508 L17,16.9856508 C17.3427257,16.965641 17.6771177,16.9244498 18,16.8604889 L18,16.8604889 L18,16 L17,16 L17,16 L17,16 Z M19,13 L19,12 L20,12 L20,13 L19,13 L19,13 L19,13 Z M21.8654997,13 C21.9258698,12.6876538 21.9667217,12.354594 21.9864147,12 L21.9864147,12 L21,12 L21,13 L21.8654997,13 L21.8654997,13 L21.8654997,13 Z M21.5809834,14 C21.425452,14.4001654 21.2299208,14.7554685 21,15.0687146 L21,15.0687146 L21,14 L21.5809834,14 L21.5809834,14 L21.5809834,14 Z M17,13 L17,12 L18,12 L18,13 L17,13 L17,13 Z M19,11 L19,10 L19,10 L20,10 L20,11 L19,11 L19,11 L19,11 Z M21.9916805,11 C21.9804829,10.6633325 21.958085,10.3295827 21.9251112,10 L21.9251112,10 L21,10 L21,11 L21.9916804,11 L21.9916805,11 L21.9916805,11 Z M17,11 L17,10 L17,10 L18,10 L18,11 L17,11 L17,11 L17,11 Z M22.9885959,12 C22.7975304,16.112928 20.2283647,17.8306522 17,17.9879919 L17,23.0848183 C17.5851089,23.2907416 18,23.848714 18,24.5047388 L18,29.4952612 C18,30.3316845 17.3284271,31 16.5,31 C15.6657972,31 15,30.3263055 15,29.4952612 L15,24.5047388 C15,23.8453254 15.4174038,23.2903964 16,23.0850527 L16,23.0850527 L16,17.9879919 L16,17.9879919 C12.7716353,17.8306522 10.2024693,16.112928 10.0114041,12 L10,12 L10,11 L10.0074943,11 C10.1717585,5.52707879 13.0157238,1 16.5,1 C19.9842762,1 22.8282415,5.52707879 22.9925057,11 L23,11 L23,12 L22.9885959,12 L22.9885959,12 L22.9885959,12 Z M16.5,24 C16.2238576,24 16,24.2278805 16,24.4910052 L16,29.5089948 C16,29.7801695 16.2319336,30 16.5,30 C16.7761424,30 17,29.7721195 17,29.5089948 L17,24.4910052 C17,24.2198305 16.7680664,24 16.5,24 L16.5,24 L16.5,24 Z" id="tennis-racket" sketch:type="MSShapeGroup"></path>
        </g>
    </g>
</svg>

<svg width="32" height="32" xmlns="http://www.w3.org/2000/svg"><path d="M13 5h1V4h-.805c-.066.089-.131.18-.195.274V5zm0 2h1V6h-1v1zm-1 0h-.303c.093-.285.194-.562.303-.83V7zm1 2h1V8h-1v1zm-1 0h-.79c.057-.34.125-.674.204-1H12v1zm1 5h1v1h-1v-1zm-1 0h-.581c.156.4.351.755.581 1.069V14zm1-2h1v1h-1v-1zm-1 0h-.986c.02.355.06.688.12 1H12v-1zm1-2h1v1h-1v-1zm-1 0h-.925c-.033.33-.055.663-.067 1H12v-1zm3-5h1V4h-1v1zm0-2.618a3.385 3.385 0 0 1 1-.34V3h-1v-.618zM15 7h1V6h-1v1zm0 2h1V8h-1v1zm0 5h1v1h-1v-1zm-1 2.572A4.759 4.759 0 0 1 12.94 16H14v.572zm1 .288c.323.064.657.106 1 .126V16h-1v.86zM15 12h1v1h-1v-1zm0-2h1v1h-1v-1zm4-6v1h1v-.726A8.003 8.003 0 0 0 19.805 4H19zm-2 0v1h1V4h-1zm0-1v-.958c.343.057.677.173 1 .34V3h-1zm2 3v1h1V6h-1zm-2 0v1h1V6h-1zm2 2v1h1V8h-1zm2.586 0c.079.326.147.66.205 1H21V8h.586zm-.283-1A12.507 12.507 0 0 0 21 6.17V7h.303zM17 8v1h1V8h-1zm2 7v-1h1v1h-1zm0 1v.572c.38-.148.737-.338 1.06-.572H19zm-2-1v-1h1v1h-1zm0 1v.986c.343-.02.677-.062 1-.126V16h-1zm2-3v-1h1v1h-1zm2.865 0c.06-.312.102-.645.121-1H21v1h.865zm-.284 1c-.156.4-.351.755-.581 1.069V14h.581zM17 13v-1h1v1h-1zm2-2v-1h1v1h-1zm2.992 0c-.012-.337-.034-.67-.067-1H21v1h.992zM17 11v-1h1v1h-1zm5.989 1c-.191 4.113-2.76 5.83-5.989 5.988v5.097c.585.206 1 .764 1 1.42v4.99a1.499 1.499 0 1 1-3 0v-4.99a1.5 1.5 0 0 1 1-1.42v-5.097c-3.228-.157-5.798-1.875-5.989-5.988H10v-1h.007c.165-5.473 3.009-10 6.493-10 3.484 0 6.328 4.527 6.493 10H23v1h-.011zM16.5 24a.5.5 0 0 0-.5.491v5.018a.5.5 0 0 0 1 0v-5.018a.5.5 0 0 0-.5-.491z" fill="#929292" fill-rule="evenodd"/></svg>
